www/assets/icons/cottage.svg

<svg xmlns="http://www.w3.org/2000/svg" width="24" height="24" viewBox="0 0 24 24" fill='currentColor'><path d="M12 4 6 8.58V7H4v3.11L1 12.4l1.21 1.59L4 12.62V22h7v-6h2v6h7v-9.38l1.79 1.36L23 12.4zm-2-2c0 1.66-1.34 3-3 3-.55 0-1 .45-1 1H4c0-1.66 1.34-3 3-3 .55 0 1-.45 1-1z"/></svg>

<svg width="24" height="24" viewBox="0 0 24 24" xmlns="http://www.w3.org/2000/svg" fill='currentColor'><path d="M12 4L6 8.58V7H4V10.11L1 12.4L2.21 13.99L4 12.62V22H11V16H13V22H20V12.62L21.79 13.98L23 12.4L12 4ZM10 2C10 3.66 8.66 5 7 5C6.45 5 6 5.45 6 6H4C4 4.34 5.34 3 7 3C7.55 3 8 2.55 8 2H10Z"/></svg>
